public/img/removal/remove-filter-list-icon.svg

<svg fill="none" height="24" viewBox="0 0 24 24" width="24" xmlns="http://www.w3.org/2000/svg"><path d="m10 18h4v-2h-4zm-7-12v2h18v-2zm3 7h12v-2h-12z" fill="#666"/></svg>

<svg width="24" height="24" viewBox="0 0 24 24" fill="none" xmlns="http://www.w3.org/2000/svg">
<title>list filter icon</title>
<path d="M10 18H14V16H10V18ZM3 6V8H21V6H3ZM6 13H18V11H6V13Z" fill="#666666"/>
</svg>
